X: 8417
T: Cowhalling
R: barndance
M: 4/4
K: Dmajor
dcd2 d2dc|AGEF D2GB|dBAA FDEF|GBAF FED2|
dcd2 d2dc|AGEF D2GB|dBAA FDEF|1 EA D3 A D2:|2 EAD2 f2d2||
ecd2 f2d2|ecd2 f2d2|(FED2) f2d2|ecd2 f2d2|
ecd2 f2d2|ecd2 fed(F|ED)fe d(fed)|ce d6||
a3b afga|gef2 dcBg|gef2 dfed|ceAF FED2|
a3b afga|gef2 dcBg|gef2 dfed|1 ce d6:|2 ced2 f2d2||
ecd2 f2 d2|ecd2 Bd (ff|ff fg fd ed|ced2) f2d2|
ecd2 f2d2|ecd2 Bd (ff|ff fg fd ed|ced2) FED2||

